assets/sonr-icons/key.svg

<svg xmlns="http://www.w3.org/2000/svg" width="24" height="24" fill="none" viewBox="0 0 24 24"><path fill="#000" d="M18 14.5L17.5528 15.3944C17.6916 15.4639 17.8448 15.5 18 15.5V14.5ZM16 13.5L16.4472 12.6056C16.1657 12.4648 15.8343 12.4648 15.5528 12.6056L16 13.5ZM14 14.5V15.5C14.1552 15.5 14.3084 15.4639 14.4472 15.3944L14 14.5ZM6.5 12C6.5 11.7239 6.72386 11.5 7 11.5V13.5C7.82843 13.5 8.5 12.8284 8.5 12H6.5ZM7 11.5C7.27614 11.5 7.5 11.7239 7.5 12H5.5C5.5 12.8284 6.17157 13.5 7 13.5V11.5ZM7.5 12C7.5 12.2761 7.27614 12.5 7 12.5V10.5C6.17157 10.5 5.5 11.1716 5.5 12H7.5ZM7 12.5C6.72386 12.5 6.5 12.2761 6.5 12H8.5C8.5 11.1716 7.82843 10.5 7 10.5V12.5ZM6.5 13H7.5V11H6.5V13ZM7 16C4.79086 16 3 14.2091 3 12H1C1 15.3137 3.68629 18 7 18V16ZM3 12C3 9.79086 4.79086 8 7 8V6C3.68629 6 1 8.68629 1 12H3ZM20.0194 10.5L21.2194 12L22.7811 10.7506L21.5811 9.25061L20.0194 10.5ZM21.2194 12L20.0194 13.5L21.5811 14.7494L22.7811 13.2494L21.2194 12ZM20.0194 13.5H18V15.5H20.0194V13.5ZM18.4472 13.6056L16.4472 12.6056L15.5528 14.3944L17.5528 15.3944L18.4472 13.6056ZM15.5528 12.6056L13.5528 13.6056L14.4472 15.3944L16.4472 14.3944L15.5528 12.6056ZM11.9079 10.5H20.0194V8.5H11.9079V10.5ZM7 8C8.31459 8 9.48107 8.63311 10.2118 9.61533L11.8165 8.42152C10.7246 6.9539 8.97356 6 7 6V8ZM14 13.5H11.9079V15.5H14V13.5ZM10.2118 14.3847C9.48107 15.3669 8.31459 16 7 16V18C8.97356 18 10.7246 17.0461 11.8165 15.5785L10.2118 14.3847ZM11.9079 13.5C11.1751 13.5 10.5749 13.8967 10.2118 14.3847L11.8165 15.5785C11.8445 15.5408 11.8734 15.5183 11.8929 15.5074C11.9106 15.4976 11.9148 15.5 11.9079 15.5V13.5ZM20.0194 13.5V15.5C20.6269 15.5 21.2016 15.2238 21.5811 14.7494L20.0194 13.5ZM11.9079 8.5C11.9148 8.5 11.9106 8.50239 11.8929 8.49258C11.8734 8.48172 11.8445 8.45923 11.8165 8.42152L10.2118 9.61533C10.5749 10.1033 11.1751 10.5 11.9079 10.5V8.5ZM21.2194 12L22.7811 13.2494C23.3655 12.519 23.3655 11.481 22.7811 10.7506L21.2194 12ZM21.5811 9.25061C21.2016 8.77618 20.6269 8.5 20.0194 8.5V10.5L21.5811 9.25061Z"/></svg>

<svg xmlns="http://www.w3.org/2000/svg" width="24" height="24" fill="none"><path fill="currentColor" d="m18 14.5-.447.894c.139.07.292.106.447.106zm-2-1 .447-.894a1 1 0 0 0-.894 0zm-2 1v1a1 1 0 0 0 .447-.106zM6.5 12a.5.5 0 0 1 .5-.5v2A1.5 1.5 0 0 0 8.5 12zm.5-.5a.5.5 0 0 1 .5.5h-2A1.5 1.5 0 0 0 7 13.5zm.5.5a.5.5 0 0 1-.5.5v-2A1.5 1.5 0 0 0 5.5 12zm-.5.5a.5.5 0 0 1-.5-.5h2A1.5 1.5 0 0 0 7 10.5zm-.5.5h1v-2h-1zm.5 3a4 4 0 0 1-4-4H1a6 6 0 0 0 6 6zm-4-4a4 4 0 0 1 4-4V6a6 6 0 0 0-6 6zm17.02-1.5 1.2 1.5 1.561-1.25-1.2-1.5zm1.2 1.5-1.2 1.5 1.561 1.25 1.2-1.5zm-1.2 1.5H18v2h2.02zm-1.573.106-2-1-.894 1.788 2 1zm-2.894-1-2 1 .894 1.788 2-1zM11.908 10.5h8.111v-2h-8.111zM7 8c1.315 0 2.481.633 3.212 1.615l1.604-1.193A6 6 0 0 0 7 6zm7 5.5h-2.092v2H14zm-3.788.885A4 4 0 0 1 7 16v2a6 6 0 0 0 4.817-2.421zm1.696-.885c-.733 0-1.333.397-1.696.885l1.604 1.194a.3.3 0 0 1 .077-.072c.018-.01.022-.007.015-.007zm8.111 0v2a2 2 0 0 0 1.562-.75zm-8.111-5c.007 0 .003.002-.015-.007a.3.3 0 0 1-.077-.071l-1.604 1.193c.363.488.963.885 1.696.885zm9.311 3.5 1.562 1.25a2 2 0 0 0 0-2.5zm.362-2.75a2 2 0 0 0-1.562-.75v2z"/></svg>
